X: 241
T: Polonäs, sexdregasamlingen del 2 nr 38
S: efter Anders Larsson
B: Sexdregasamlingen del 2 nr 38
O: Sexdrega, Västergötland
R: Slängpolska
Z: 2008-05-31 av Nils L
M: 3/4
L: 1/16
K: G
G2GF G4 D4 | A2Bc d2c2 B2A2 | GAB^c d2c2 d2D2 | E2D2 C2B,2 A,2G,2 | G,2AF G8 ::
g2g2 G,2g2 f2g2 | a2a2 A2a2 g2a2 | b2a2 g2f2 e2d2 | e2d^c d8 | 
d2g2 d2c2 B2AG | c2e2 A2G2 F2ED | B2d2 A2G2 F2E2 | A2GF G4 G,4 :|
(:musicend:)

(:music:)
